X:1
T:Title
%%score [ ( 1 2 ) ( 3 4 ) ] { ( 5 6 ) | 7 }
L:1/8
Q:1/4=120
M:4/4
K:Eb
V:1 treble nm="Midi_74"
V:2 treble 
V:3 bass nm="Midi_74"
V:4 bass 
V:5 treble nm="Org."
V:6 treble 
V:7 bass 
V:1
"^137th Psalm" (c6 d2) | e4 G4 | c8 || (B6 E2) | D4 E4 |{FG} A4 G4 |{G} F8 || =B8 | c4 d4 | %9
 (e6 d2) || (c6 B2) |{B} A4 G4 |"^John Camidge\n(1790-1859)" G6 F2 | E8 |] %14
V:2
 (E6 F2) | G4 D4 | E8 || (E6 B,2) | B,4 B,4 | B,4 B,4 | B,8 || D8 | E4 F4 | (G6 =E2) || (F6 =E2) | %11
 F4 (G2 F2) | E4 D4 | E8 |] %14
V:3
 G,8 | G,4 B,4 | C8 || (E,6 B,2) | A,4 G,4 | F,4 G,4 |{E,} D,8 || (G,6 A,2) | G,4 =B,4 | %9
 (C6 G,2) ||{A,} C8 | C4 C4 | C4 =B,4 | C8 |] %14
V:4
 C,8 | C,4 B,,4 | A,,8 || (G,,6 G,2) | F,4 E,4 | D,4 E,4 | B,,8 || (G,,6 F,2) | E,4 D,4 | %9
 (C,6 B,,2) || (A,,6 G,2) | F,4 (E,2 F,2) | G,4 G,,4 | C,8 |] %14
V:5
"^pia" c6 d2 | e4 G4 | c8 || B6 E2 | D4 E4 | A4 G4 |{[EG]} F8 || [D=B]8 | c4 d4 | e6 d2 || c6 B2 | %11
{B} A4 G4 | G6 F2 |{[DF]} E8 |] %14
V:6
 E6 F2 | [EG]4 D4 | [CE]8 || [B,E]8 | [A,B,]4 [G,B,]4 | [B,F]4 [B,E]4 | [B,D]8 || G6 A2 | %8
 [CG]4 [FG=B]4 | [EGc]6 =E2 || F6 [C=E]2 | [CF]4 [CE]4 | [CE]4 [G,=B,D]4 | [CE]8 |] %14
V:7
 [C,C]8 | [C,C]4 [B,,B,]4 | [A,,A,]8 || [G,,G,]8 | [F,,F,]4 [E,,E,]4 | [D,,D,]4 [E,,E,]4 | B,,8 || %7
 [G,,G,]6 [F,,F,]2 | [E,,E,]4 [D,,D,]4 | [C,,C,]6 B,,2 || [A,,A,]6 [G,,G,]2 | %11
 [F,,F,]4 [E,,E,]2 [F,,F,]2 | [G,,G,]4"^8" G,,4 | [C,,C,G,]8 |] %14

